X: 3
T: Fifth Legion March, The
Z: CáitMurphy
S: https://thesession.org/tunes/9856#setting25065
R: reel
M: 4/4
L: 1/8
K: Gmaj
GE |: DEGA BGGG | AGBG AGEA | DEGA BGGG | GAAG A2 GE |
D2 GA BGGG | A2 BG AGEG | ~B3 B/ BA AGED |1 EGGF G2 GE :|2 EGGF G2 EG ||
|: A2 EA BAGE | A2 GE D2 EG | A2 EA BAGE | GGGF E2 EG |
A2 EA BAGE | A2 GE DBEG |A2 EA BAGE |1 GGGF G2 EG :|2 GGGF GABc ||
|: d2 de dBGB | A2 AB AGBc | d2 de dBGB | A2 AB A2 Bc |
d2 de dBGB | A2 BG AGEG | ~B3 B/ BA AGED |1 EGGF G2 Bc :|2 EGGF G2GE ||
